X:233
T: ACH UMSONST AUF ALLER LAENDER KARTEN
N: B0281
O: Europa, Mitteleuropa, Deutschland
R: Stimmungs - Lied, Sehnsucht, Jugend
M: 4/4
L: 1/16
K: A
c3B | A6A2A2A2G2A2 | ^A4B4z4
=A2B2 | c6c2B2A2G2A2 | B8z4
E2E2 | d4c2B2e2e2c2B2 | A3Bc8
c2c2 | ^A2B2e2d2=A4B4 | c8z4
c2c2 | e3dc2B2A4c3B | A8z4

